X:1
T:Am I the Doctor
M:5/4
L:1/8
K:Eb
 E3.99999962500005/5.99999925000009 F3.99999962500005/5.99999925000009 G3.99999962500005/5.99999925000009|\
 A2 GF GE CE|
M:5/4
 F2 E3/2 E/2 E4 GA|
M:4/4
 BB cd eB GB| c2 BB B4| GA
M:4/4
| BB cd eB GB|
M:5/4
 cd ec BG E2 E3.99999962500005/5.99999925000009 F3.99999962500005/5.99999925000009 G3.99999962500005/5.99999925000009|\
 A2 GF GE CE
M:5/4
| F2 E3/2 E/2 E4||
